modules/linearicons/icons/gift.svg

<?xml version="1.0" encoding="utf-8"?>
<!-- Generated by IcoMoon.io -->
<!DOCTYPE svg PUBLIC "-//W3C//DTD SVG 1.1//EN" "http://www.w3.org/Graphics/SVG/1.1/DTD/svg11.dtd">
<svg version="1.1" xmlns="http://www.w3.org/2000/svg" xmlns:xlink="http://www.w3.org/1999/xlink" width="20" height="20" viewBox="0 0 20 20">
<path fill="#000000" d="M18.5 5h-3.001c0.315-0.418 0.501-0.938 0.501-1.5 0-1.378-1.122-2.5-2.5-2.5-1.39 0-2.556 1.101-3.127 1.758-0.346 0.397-0.644 0.823-0.873 1.235-0.229-0.412-0.527-0.837-0.873-1.235-0.571-0.656-1.737-1.758-3.127-1.758-1.378 0-2.5 1.122-2.5 2.5 0 0.562 0.187 1.082 0.501 1.5h-3.001c-0.276 0-0.5 0.224-0.5 0.5v3c0 0.276 0.224 0.5 0.5 0.5h0.5v9.5c0 0.827 0.673 1.5 1.5 1.5h14c0.827 0 1.5-0.673 1.5-1.5v-9.5h0.5c0.276 0 0.5-0.224 0.5-0.5v-3c0-0.276-0.224-0.5-0.5-0.5zM11.127 3.414c0.782-0.899 1.647-1.414 2.373-1.414 0.827 0 1.5 0.673 1.5 1.5s-0.673 1.5-1.5 1.5h-3.378c0.173-0.442 0.523-1.032 1.005-1.586zM11 19h-3v-13h3v13zM4 3.5c0-0.827 0.673-1.5 1.5-1.5 0.726 0 1.591 0.515 2.373 1.414 0.482 0.554 0.832 1.144 1.005 1.586h-3.378c-0.827 0-1.5-0.673-1.5-1.5zM1 6h6v2h-6v-2zM2 18.5v-9.5h5v10h-4.5c-0.276 0-0.5-0.224-0.5-0.5zM17 18.5c0 0.276-0.224 0.5-0.5 0.5h-4.5v-10h5v9.5zM18 8h-6v-2h6v2z"></path>
</svg>

<svg xmlns="http://www.w3.org/2000/svg" width="20" height="20" viewBox="0 0 20 20"><path d="M18.5 5h-3.001c.315-.418.501-.938.501-1.5C16 2.122 14.878 1 13.5 1c-1.39 0-2.556 1.101-3.127 1.758A7.331 7.331 0 0 0 9.5 3.993a7.372 7.372 0 0 0-.873-1.235C8.056 2.102 6.89 1 5.5 1A2.503 2.503 0 0 0 3 3.5c0 .562.187 1.082.501 1.5H.5a.5.5 0 0 0-.5.5v3a.5.5 0 0 0 .5.5H1v9.5c0 .827.673 1.5 1.5 1.5h14c.827 0 1.5-.673 1.5-1.5V9h.5a.5.5 0 0 0 .5-.5v-3a.5.5 0 0 0-.5-.5zm-7.373-1.586C11.909 2.515 12.774 2 13.5 2c.827 0 1.5.673 1.5 1.5S14.327 5 13.5 5h-3.378c.173-.442.523-1.032 1.005-1.586zM11 19H8V6h3v13zM4 3.5C4 2.673 4.673 2 5.5 2c.726 0 1.591.515 2.373 1.414.482.554.832 1.144 1.005 1.586H5.5C4.673 5 4 4.327 4 3.5zM1 6h6v2H1V6zm1 12.5V9h5v10H2.5a.5.5 0 0 1-.5-.5zm15 0a.5.5 0 0 1-.5.5H12V9h5v9.5zM18 8h-6V6h6v2z"/></svg>
